FINK
CUT[FUER DIE ZEIT DASS DU MI GELIEBT HAST]
REG[Europa, Mitteleuropa, Deutschland]
KEY[F0130A 16  F 3/8]
MEL[-5-5  1_1234  5_5_5_  6_6_6_  5__
    55  4_4_4_  3_3_3_  2_2_2_  1__
    5_  2_5_.4  3_+1_.5  5_3_2_  1__ //] >>
FCT[Liebes - Lied, Spott]
CMT[Strophen - Variante zu F0130]
